X:0
T:Simple scale exercise
M:4/4
C:noOne
K:C
|| C,D,E,F, | G,A,B,C | DEFG | ABcd | efga | bc&#x27;d&#x27;e&#x27; | f&#x27;g&#x27;a&#x27;b&#x27; ||
